X: 11
T: Eavesdropper, The
Z: ceili
S: https://thesession.org/tunes/389#setting48400
R: jig
M: 6/8
L: 1/8
K: Gmaj
|:"G"D2B BAG|Bdd dBG|"C"cee dBG|"A"BAA AGE|
"G"D2B BAG|Bdd dBG|"C"cee dBA|"A"BGF "G"G3:|
|:"G"g/g/gg afd|"D"efg dBG|"C"cee dBG|"A"BAA ABd|
"G"g/g/gg afd|"D"efg dBG|"C"cee dBA|"A"BGF "G"G3:|

